Sources/FrostedUI/Resources/Icons.xcassets/calendarPlusSize24.imageset/calendar-plus-size-24.svg

<svg
  width="24"
  height="24"
  viewBox="0 0 24 24"
  fill="none"
  xmlns="http://www.w3.org/2000/svg"
  data-fui-icon="true"
>
  <path
    d="M7.75 4.75H5.75C4.64543 4.75 3.75 5.64543 3.75 6.75V9.25M7.75 4.75H16.25M7.75 4.75V2.75M3.75 9.25V18.25C3.75 19.3546 4.64543 20.25 5.75 20.25H11.25M3.75 9.25H20.25M16.25 4.75H18.25C19.3546 4.75 20.25 5.64543 20.25 6.75V9.25M16.25 4.75V2.75M20.25 9.25V11.25M17.75 14.75V18M17.75 18V21.25M17.75 18H14.5M17.75 18H21"
    stroke="currentColor"
    stroke-width="1.5"
    stroke-linecap="round"
    stroke-linejoin="round"
  />
</svg>

<svg xmlns="http://www.w3.org/2000/svg" width="24" height="24" fill="none" data-fui-icon="true" viewBox="0 0 24 24"><path stroke="currentColor" stroke-linecap="round" stroke-linejoin="round" stroke-width="1.5" d="M7.75 4.75h-2a2 2 0 0 0-2 2v2.5m4-4.5h8.5m-8.5 0v-2m-4 6.5v9a2 2 0 0 0 2 2h5.5m-7.5-11h16.5m-4-4.5h2a2 2 0 0 1 2 2v2.5m-4-4.5v-2m4 6.5v2m-2.5 3.5V18m0 0v3.25m0-3.25H14.5m3.25 0H21"/></svg>
